!!!OTL: やってみよう
**kern	**text	**dynam	**kern	**text	**dynam	**kern	**text	**dynam	**kern	**text	**dynam
*part4	*part4	*part4	*part3	*part3	*part3	*part2	*part2	*part2	*part1	*part1	*part1
*staff4	*staff4	*	*staff3	*staff3	*	*staff2	*staff2	*	*staff1	*staff1	*
*I"Bass	*	*	*I"Mez	*	*	*I"Sop	*	*	*I"Lead	*	*
*clefF4	*	*	*clefG2	*	*	*clefG2	*	*	*clefG2	*	*
*k[]	*	*	*k[]	*	*	*k[]	*	*	*k[]	*	*
*M4/4	*	*	*M4/4	*	*	*M4/4	*	*	*M4/4	*	*
=1	=1	=1	=1	=1	=1	=1	=1	=1	=1	=1	=1
1r	.	f	1r	.	f	2r	.	.	2r	.	.
.	.	.	.	.	.	4.dd	.	f	4.a	Yeah-	f
.	.	.	.	.	.	8cc	.	.	8g	.	.
=2	=2	=2	=2	=2	=2	=2	=2	=2	=2	=2	=2
2c	Ah-	.	2e	Ah-	.	8ccL	.	.	8gL	-la	.
.	.	.	.	.	.	8cc	.	.	8g	la	.
.	.	.	.	.	.	8cc	.	.	8g	la	.
.	.	.	.	.	.	8ccJ	.	.	8gJ	la	.
2c#X	.	.	2e	.	.	8ddL	.	.	8aL	la	.
.	.	.	.	.	.	8cc	.	.	8g	la	.
.	.	.	.	.	.	8a	.	.	8e	la	.
.	.	.	.	.	.	8gJ	.	.	8dJ	la	.
=3	=3	=3	=3	=3	=3	=3	=3	=3	=3	=3	=3
2d	.	.	2f	.	.	8fL	.	.	8cL	la	.
.	.	.	.	.	.	8f	.	.	8c	la	.
.	.	.	.	.	.	8f	.	.	8c	la	.
.	.	.	.	.	.	8fJ	.	.	8cJ	la	.
2r	.	.	2r	.	.	8.eeL	.	.	8.ccL	wo-	.
.	.	.	.	.	.	8.dd	.	.	8.b	.	.
.	.	.	.	.	.	8eeJ	.	.	8ccJ	.	.
=4	=4	=4	=4	=4	=4	=4	=4	=4	=4	=4	=4
2A	Ah-	.	2d	-Ah-	.	8r	.	.	1r	.	.
.	.	.	.	.	.	8cc	Hey	.	.	.	.
.	.	.	.	.	.	8r	.	.	.	.	.
.	.	.	.	.	.	8cc	Hey	.	.	.	.
2G	.	.	2d	.	.	8r	.	.	.	.	.
.	.	.	.	.	.	8cc	Hey	.	.	.	.
.	.	.	.	.	.	8r	.	.	.	.	.
.	.	.	.	.	.	8cc	Hey	.	.	.	.
=5	=5	=5	=5	=5	=5	=5	=5	=5	=5	=5	=5
2G	.	.	2e	.	.	2r	.	.	2r	.	.
4c^	-try	.	4e^	-try	.	4e^	try	.	4g^	try	.
4c^	try	.	4e^	try	.	4e^	try	.	4g^	try	.
=6	=6	=6	=6	=6	=6	=6	=6	=6	=6	=6	=6
4G	.	mf	1e	Uh-	mf	[1cc	Uh-	mf	8GL	た	mf
.	.	.	.	.	.	.	.	.	[8c	だ	.
4G	.	.	.	.	.	.	.	.	8c]	ー	.
.	.	.	.	.	.	.	.	.	8dJ	し	.
4G	.	.	.	.	.	.	.	.	4e	い	.
4G	.	.	.	.	.	.	.	.	8cL	よ	.
.	.	.	.	.	.	.	.	.	8cJ	り	.
=7	=7	=7	=7	=7	=7	=7	=7	=7	=7	=7	=7
4F	.	.	2f	.	.	2cc]	.	.	8A	た	.
.	.	.	.	.	.	.	.	.	4c	の	.
4F	.	.	.	.	.	.	.	.	.	.	.
.	.	.	.	.	.	.	.	.	8A	し	.
4F	.	.	8r	.	.	4cc	-wo-	.	4G	い	.
.	.	.	8GL	-wo-	.	.	.	.	.	.	.
4F	.	.	8g	.	.	4b	.	.	4r	.	.
.	.	.	8fJ	.	.	.	.	.	.	.	.
=8	=8	=8	=8	=8	=8	=8	=8	=8	=8	=8	=8
4c	.	.	2.e	.	.	1cc	.	.	8GL	た	.
.	.	.	.	.	.	.	.	.	[8c	だ	.
4c	.	.	.	.	.	.	.	.	8c]	ー	.
.	.	.	.	.	.	.	.	.	8dJ	し	.
4c	.	.	.	.	.	.	.	.	8eL	い	.
.	.	.	.	.	.	.	.	.	8e	よ	.
4c	.	.	8r	.	.	.	.	.	8d	り	.
.	.	.	8c	-お	.	.	.	.	8eJ	お	.
=9	=9	=9	=9	=9	=9	=9	=9	=9	=9	=9	=9
4G	.	.	4e	も	.	2g	.	.	4g	も	.
4G	.	.	8eL	し	.	.	.	.	8gL	し	.
.	.	.	8eJ	ろ	.	.	.	.	8gJ	ろ	.
4c	.	.	4c	い	.	2cc	.	.	4e	い	.
4c	.	.	4r	.	.	.	.	.	4r	.	.
=10	=10	=10	=10	=10	=10	=10	=10	=10	=10	=10	=10
4A	.	.	2f	Ah-	.	2cc	Ah-	.	8ccL	や	.
.	.	.	.	.	.	.	.	.	8b	り	.
4A	.	.	.	.	.	.	.	.	8a	た	.
.	.	.	.	.	.	.	.	.	8gJ	か	.
4G	.	.	2d	.	.	2dd	.	.	8ccL	っ	.
.	.	.	.	.	.	.	.	.	8b	た	.
4G	.	.	.	.	.	.	.	.	8a	こ	.
.	.	.	.	.	.	.	.	.	8gJ	と	.
=11	=11	=11	=11	=11	=11	=11	=11	=11	=11	=11	=11
4G	.	.	2d	.	.	2dd	.	.	8ccL	や	.
.	.	.	.	.	.	.	.	.	8b	っ	.
4G	.	.	.	.	.	.	.	.	8a	て	.
.	.	.	.	.	.	.	.	.	8gJ	み	.
4A	.	.	2e	.	.	4cc	.	.	4a	よ	.
4A	.	.	.	.	.	8gL	し	.	8eL	し	.
.	.	.	.	.	.	8fJ	っ	.	8dJ	っ	.
=12	=12	=12	=12	=12	=12	=12	=12	=12	=12	=12	=12
4F	.	.	2d	Ah-	.	4e	ぱい	.	4c	ぱい	.
4F	.	.	.	.	.	8eL	も	.	8cL	も	.
.	.	.	.	.	.	8gJ	お	.	8eJ	お	.
4G	.	.	2d	.	.	8fL	も	.	8dL	も	.
.	.	.	.	.	.	8eJ	い	.	8cJ	い	.
4G	.	.	.	.	.	[4e	で	.	[4c	で	.
=13	=13	=13	=13	=13	=13	=13	=13	=13	=13	=13	=13
4G	.	.	2e	.	.	2e]	.	.	2c]	.	.
4G	.	.	.	.	.	.	.	.	.	.	.
2r	.	.	2r	.	.	8r	.	.	8r	.	.
.	.	.	.	.	.	8GL	は	.	8GL	は	.
.	.	.	.	.	.	8B	じ	.	8B	じ	.
.	.	.	.	.	.	8cJ	め	.	8cJ	め	.
=14	=14	=14	=14	=14	=14	=14	=14	=14	=14	=14	=14
4G	.	.	1d	wo-	.	2G	よう	.	2d	よう	.
4G	.	.	.	.	.	.	.	.	.	.	.
4G	.	.	.	.	.	8r	.	.	8r	.	.
.	.	.	.	.	.	8GL	やっ	.	8GL	やっ	.
4G	.	.	.	.	.	8c	て	.	8c	て	.
.	.	.	.	.	.	8dJ	み	.	8dJ	み	.
=15	=15	=15	=15	=15	=15	=15	=15	=15	=15	=15	=15
4G	.	.	1e	.	.	2c	よう	.	2e	よう	.
4G	.	.	.	.	.	.	.	.	.	.	.
4G	.	.	.	.	.	8r	.	.	8r	.	.
.	.	.	.	.	.	8AL	だ	.	8cL	だ	.
4G	.	.	.	.	.	8c	れ	.	8e	れ	.
.	.	.	.	.	.	8eJ	で	.	8gJ	で	.
=16	=16	=16	=16	=16	=16	=16	=16	=16	=16	=16	=16
4A	.	.	1f	-wo-	.	4f	も	.	4a	も	.
4c	.	.	.	.	.	4e	さい	.	4g	さい	.
4A	.	.	.	.	.	4c	しょ	.	4f	しょ	.
4d	.	.	.	.	.	4A	は	.	4d	は	.
=17	=17	=17	=17	=17	=17	=17	=17	=17	=17	=17	=17
4d	.	.	2g	.	.	8.dL	しょ	.	8.gL	しょ	.
.	.	.	.	.	.	8.d	しん」しゃ	.	8.g	しん	.
4d	.	.	.	.	.	.	.	.	.	.	.
.	.	.	.	.	.	8dJ	.	.	8gJ	しゃ	.
4B	.	.	2b	.	.	2r	.	.	8gL	なん	.
.	.	.	.	.	.	.	.	.	8f	だ	.
4B	.	.	.	.	.	.	.	.	8e	か	.
.	.	.	.	.	.	.	.	.	8dJ	ら	.
=18	=18	=18	=18	=18	=18	=18	=18	=18	=18	=18	=18
8.GL	.	.	2e	wo-	.	2cc	wo-	.	8.cL	やっ	.
16GJk	.	.	.	.	.	.	.	.	16cJk	た	.
8GL	.	.	.	.	.	.	.	.	8cL	こ	.
8GJ	.	.	.	.	.	.	.	.	8cJ	と	.
8.AL	.	.	2f	.	.	2cc	.	.	8cL	な	.
.	.	.	.	.	.	.	.	.	8A	い	.
16AJk	.	.	.	.	.	.	.	.	.	.	.
8AL	.	.	.	.	.	.	.	.	8G	こ	.
8AJ	.	.	.	.	.	.	.	.	8AJ	と	.
=19	=19	=19	=19	=19	=19	=19	=19	=19	=19	=19	=19
8.GL	.	.	4e	.	.	1cc	.	.	2c	も	.
16GJk	.	.	.	.	.	.	.	.	.	.	.
8GL	.	.	8ccL	-やっ	.	.	.	.	.	.	.
8GJ	.	.	8ccJ	てみ	.	.	.	.	.	.	.
8.GL	.	.	4cc	よう	.	.	.	.	4r	.	.
16GJk	.	.	.	.	.	.	.	.	.	.	.
8GL	.	.	4r	.	.	.	.	.	8cL	に	.
8GJ	.	.	.	.	.	.	.	.	8cJ	が	.
=20	=20	=20	=20	=20	=20	=20	=20	=20	=20	=20	=20
8.cL	.	.	2g	wo-	.	2cc	wo	.	4e	て	.
16cJk	.	.	.	.	.	.	.	.	.	.	.
8cL	.	.	.	.	.	.	.	.	8eL	な	.
8cJ	.	.	.	.	.	.	.	.	8eJ	あ	.
8.GL	.	.	2d	.	.	2b	.	.	8eL	い	.
.	.	.	.	.	.	.	.	.	8cc	て	.
16GJk	.	.	.	.	.	.	.	.	.	.	.
8GL	.	.	.	.	.	.	.	.	8b	と	.
8GJ	.	.	.	.	.	.	.	.	[8ccJ	も	.
=21	=21	=21	=21	=21	=21	=21	=21	=21	=21	=21	=21
8.AL	.	.	1e	.	.	8.gL	は	.	2cc]	ー	.
16AJk	.	.	.	.	.	16gJk	な	.	.	.	.
8AL	.	.	.	.	.	8gL	し	.	.	.	.
8AJ	.	.	.	.	.	8gJ	て	.	.	.	.
8.AL	.	.	.	.	.	8gL	み	.	2r	.	.
.	.	.	.	.	.	8f	よ	.	.	.	.
16AJk	.	.	.	.	.	.	.	.	.	.	.
8AL	.	.	.	.	.	8eJ	う	.	.	.	.
8AJ	.	.	.	.	.	8r	.	.	.	.	.
=22	=22	=22	=22	=22	=22	=22	=22	=22	=22	=22	=22
4c	.	.	2e	wo-	.	8eL	し	.	8gL	し	.
.	.	.	.	.	.	8e	ら	.	8g	ら	.
4c	.	.	.	.	.	8e	な	.	8g	な	.
.	.	.	.	.	.	8eJ	か	.	8gJ	か	.
4c#X	.	.	2e	.	.	8fL	っ	.	8aL	っ	.
.	.	.	.	.	.	8e	た	.	8g	た	.
4c#	.	.	.	.	.	8c	こ	.	8e	こ	.
.	.	.	.	.	.	8AJ	と	.	8dJ	と	.
=23	=23	=23	=23	=23	=23	=23	=23	=23	=23	=23	=23
4d	.	.	2f	.	.	4c	ー	.	8cL	み	.
.	.	.	.	.	.	.	.	.	8c	た	.
4d	.	.	.	.	.	4cc	wo-	.	8c	こ	.
.	.	.	.	.	.	.	.	.	8cJ	と	.
4c	.	.	4f	.	.	4b	.	.	8dL	な	.
.	.	.	.	.	.	.	.	.	8c	い	.
4c	.	.	4e	.	.	4cc	.	.	8A	も	.
.	.	.	.	.	.	.	.	.	8cJ	の	.
=24	=24	=24	=24	=24	=24	=24	=24	=24	=24	=24	=24
4c	.	.	2e	-wo-	.	8gL	-あ	.	8GL	あ	.
.	.	.	.	.	.	8g	た	.	8e	た	.
4c	.	.	.	.	.	8g	ら	.	8e	ら	.
.	.	.	.	.	.	8gJ	し	.	8eJ	し	.
4G	.	.	2d	.	.	8GL	い	.	8GL	い	.
.	.	.	.	.	.	8f	た	.	8d	た	.
4G	.	.	.	.	.	8f	の	.	8d	の	.
.	.	.	.	.	.	8fJ	し	.	8dJ	し	.
=25	=25	=25	=25	=25	=25	=25	=25	=25	=25	=25	=25
4G	.	.	2e	.	.	2e	い	.	2c	い	.
4G	.	.	.	.	.	.	.	.	.	.	.
4c^	try	.	4e^	-try	.	4e^	try	.	4g^	try	.
4c^	try	.	4e^	try	.	4e^	try	.	4g^	try	.
=26	=26	=26	=26	=26	=26	=26	=26	=26	=26	=26	=26
1G	Uh-	mp	1e	Uh-	mp	1cc	Uh-	mp	8GL	か	mp
.	.	.	.	.	.	.	.	.	[8c	な	.
.	.	.	.	.	.	.	.	.	8c]	ー	.
.	.	.	.	.	.	.	.	.	8dJ	し	.
.	.	.	.	.	.	.	.	.	8eL	い	.
.	.	.	.	.	.	.	.	.	8e	と	.
.	.	.	.	.	.	.	.	.	8c	き	.
.	.	.	.	.	.	.	.	.	8cJ	は	.
=27	=27	=27	=27	=27	=27	=27	=27	=27	=27	=27	=27
1F	.	.	1f	.	.	1cc	.	.	8A	わ	.
.	.	.	.	.	.	.	.	.	4c	ら	.
.	.	.	.	.	.	.	.	.	8A	っ	.
.	.	.	.	.	.	.	.	.	4G	て	.
.	.	.	.	.	.	.	.	.	4r	.	.
=28	=28	=28	=28	=28	=28	=28	=28	=28	=28	=28	=28
1c	-Uh-	.	1e	-Uh-	.	1cc	-Uh-	.	8GL	さ	.
.	.	.	.	.	.	.	.	.	[8c	み	.
.	.	.	.	.	.	.	.	.	8c]	ー	.
.	.	.	.	.	.	.	.	.	8dJ	し	.
.	.	.	.	.	.	.	.	.	8eL	い	.
.	.	.	.	.	.	.	.	.	8e	と	.
.	.	.	.	.	.	.	.	.	8d	き	.
.	.	.	.	.	.	.	.	.	8eJ	は	.
=29	=29	=29	=29	=29	=29	=29	=29	=29	=29	=29	=29
2G	.	.	2c	.	.	2g	.	.	8gL	こ	.
.	.	.	.	.	.	.	.	.	8e	え	.
.	.	.	.	.	.	.	.	.	8g	だ	.
.	.	.	.	.	.	.	.	.	8aJ	し	.
4c	.	.	4e	.	.	4g	.	.	4g	て	.
4r	.	.	4r	.	.	4r	.	.	4r	.	.
=30	=30	=30	=30	=30	=30	=30	=30	=30	=30	=30	=30
2A	-Uh-	.	2f	Uh-	.	2cc	-Uh-	.	8ccL	あ	.
.	.	.	.	.	.	.	.	.	8b	め	.
.	.	.	.	.	.	.	.	.	8a	は	.
.	.	.	.	.	.	.	.	.	8gJ	い	.
2G	.	.	2d	.	.	2dd	.	.	8ccL	つ	.
.	.	.	.	.	.	.	.	.	8b	ま	.
.	.	.	.	.	.	.	.	.	8a	で	.
.	.	.	.	.	.	.	.	.	8gJ	も	.
=31	=31	=31	=31	=31	=31	=31	=31	=31	=31	=31	=31
2G	.	.	2d	.	.	2dd	.	.	8ccL	つ	.
.	.	.	.	.	.	.	.	.	8b	づ	.
.	.	.	.	.	.	.	.	.	8a	か	.
.	.	.	.	.	.	.	.	.	8gJ	な	.
2A	.	.	2e	.	.	2cc	.	.	4a	い	.
.	.	.	.	.	.	.	.	.	8eL	ど	.
.	.	.	.	.	.	.	.	.	8dJ	しゃ	.
=32	=32	=32	=32	=32	=32	=32	=32	=32	=32	=32	=32
2F	-Uh-	.	2d	Uh-	.	2f	-Uh-	.	8cL	ぶ	.
.	.	.	.	.	.	.	.	.	8c	り	.
.	.	.	.	.	.	.	.	.	8c	も	.
.	.	.	.	.	.	.	.	.	8eJ	た	.
2G	.	.	2d	.	.	2g	.	.	8dL	の	.
.	.	.	.	.	.	.	.	.	8e	し	.
.	.	.	.	.	.	.	.	.	8d	も	.
.	.	.	.	.	.	.	.	.	8cJ	う	.
=33	=33	=33	=33	=33	=33	=33	=33	=33	=33	=33	=33
2G	.	.	2e	.	.	2cc	.	.	4r	.	.
.	.	.	.	.	.	.	.	.	4G	ふ	.
2r	.	.	2r	.	.	2r	.	.	4B	み	.
.	.	.	.	.	.	.	.	.	4c	だ	.
=34	=34	=34	=34	=34	=34	=34	=34	=34	=34	=34	=34
16GLL	du	.	1g	-wo	.	1b	wo-	.	2d	そう	.
16GJ	.	.	.	.	.	.	.	.	.	.	.
8GJ	.	.	.	.	.	.	.	.	.	.	.
16GLL	.	.	.	.	.	.	.	.	.	.	.
16GJ	.	.	.	.	.	.	.	.	.	.	.
8GJ	.	.	.	.	.	.	.	.	.	.	.
16GLL	.	.	.	.	.	.	.	.	8r	.	.
16GJ	.	.	.	.	.	.	.	.	.	.	.
8GJ	.	.	.	.	.	.	.	.	16GLL	よ	.
.	.	.	.	.	.	.	.	.	16GJJ	じ	.
16GLL	.	.	.	.	.	.	.	.	8cL	の	.
16GJ	.	.	.	.	.	.	.	.	.	.	.
8GJ	.	.	.	.	.	.	.	.	8dJ	ぼ	.
=35	=35	=35	=35	=35	=35	=35	=35	=35	=35	=35	=35
16GLL	.	.	1g	.	ff	1cc	.	ff	2e	ろう	.
16GJ	.	.	.	.	.	.	.	.	.	.	.
8GJ	.	.	.	.	.	.	.	.	.	.	.
16GLL	.	.	.	.	.	.	.	.	.	.	.
16GJ	.	.	.	.	.	.	.	.	.	.	.
8GJ	.	.	.	.	.	.	.	.	.	.	.
16GLL	.	.	.	.	.	.	.	.	8r	.	.
16GJ	.	.	.	.	.	.	.	.	.	.	.
8GJ	.	.	.	.	.	.	.	.	8cL	た	ff
16GLL	.	.	.	.	.	.	.	.	8e	か	.
16GJ	.	.	.	.	.	.	.	.	.	.	.
8GJ	.	.	.	.	.	.	.	.	8gJ	い	.
=36	=36	=36	=36	=36	=36	=36	=36	=36	=36	=36	=36
4A	.	ff	4f	la	.	4f	-や	.	4a	や	.
4c	.	.	4g	la	.	4e	ま	.	4g	ま	.
4A	.	.	4f	la	.	4c	ほ	.	4f	ほ	.
4d	.	.	4f	la	.	4A	ど	.	4d	ど	.
=37	=37	=37	=37	=37	=37	=37	=37	=37	=37	=37	=37
4d	.	.	2g	Ah-	.	8.dL	ぜっ	.	8.gL	ぜっ	.
.	.	.	.	.	.	8.d	けい	.	8.g	けい	.
4d	.	.	.	.	.	.	.	.	.	.	.
.	.	.	.	.	.	8dJ	が	.	8gJ	が	.
4B	.	.	2b	.	.	2r	.	.	8gL	まっ	.
.	.	.	.	.	.	.	.	.	16fL	て	.
.	.	.	.	.	.	.	.	.	16fJJ	る	.
4B	.	.	.	.	.	.	.	.	8eL	か	.
.	.	.	.	.	.	.	.	.	8dJ	ら	.
=38	=38	=38	=38	=38	=38	=38	=38	=38	=38	=38	=38
8.GL	.	.	2e	-Ah-	.	2cc	Ah-	.	8.cL	とお	.
16GJk	.	.	.	.	.	.	.	.	16cJk	ま	.
8GL	.	.	.	.	.	.	.	.	8cL	わ	.
8GJ	.	.	.	.	.	.	.	.	8cJ	り	.
8.AL	.	.	2f	.	.	2cc	.	.	8cL	の	.
.	.	.	.	.	.	.	.	.	8A	み	.
16AJk	.	.	.	.	.	.	.	.	.	.	.
8AL	.	.	.	.	.	.	.	.	8G	ち	.
8AJ	.	.	.	.	.	.	.	.	8AJ	を	.
=39	=39	=39	=39	=39	=39	=39	=39	=39	=39	=39	=39
8.GL	.	.	4e	.	.	1cc	.	.	2c	ー	.
16GJk	.	.	.	.	.	.	.	.	.	.	.
8GL	.	.	8ccL	えら	.	.	.	.	.	.	.
8GJ	.	.	8ccJ	んでみ	.	.	.	.	.	.	.
8.GL	.	.	4cc	よう	.	.	.	.	4r	.	.
16GJk	.	.	.	.	.	.	.	.	.	.	.
8GL	.	.	4r	.	.	.	.	.	8cL	け	.
8GJ	.	.	.	.	.	.	.	.	8cJ	わ	.
=40	=40	=40	=40	=40	=40	=40	=40	=40	=40	=40	=40
8.cL	.	.	2g	-Ah-	.	2cc	-Ah-	.	4e	し	.
16cJk	.	.	.	.	.	.	.	.	.	.	.
8cL	.	.	.	.	.	.	.	.	8eL	い	.
8cJ	.	.	.	.	.	.	.	.	8eJ	と	.
8.GL	.	.	2d	.	.	2b	.	.	8eL	う	.
.	.	.	.	.	.	.	.	.	8cc	げ	.
16GJk	.	.	.	.	.	.	.	.	.	.	.
8GL	.	.	.	.	.	.	.	.	8b	に	.
8GJ	.	.	.	.	.	.	.	.	8ccJ	は	.
=41	=41	=41	=41	=41	=41	=41	=41	=41	=41	=41	=41
8.AL	.	.	1e	.	.	8.gL	な	.	2cc	ー	.
16AJk	.	.	.	.	.	16gJk	に	.	.	.	.
8AL	.	.	.	.	.	8gL	か	.	.	.	.
8AJ	.	.	.	.	.	8gJ	が	.	.	.	.
8.AL	.	.	.	.	.	8gL	あ	.	2r	.	.
.	.	.	.	.	.	8f	る	.	.	.	.
16AJk	.	.	.	.	.	.	.	.	.	.	.
8AL	.	.	.	.	.	8eJ	さ	.	.	.	.
8AJ	.	.	.	.	.	8r	.	.	.	.	.
=42	=42	=42	=42	=42	=42	=42	=42	=42	=42	=42	=42
4c	.	.	2e	Ah-	.	8eL	あ	.	8gL	あ	.
.	.	.	.	.	.	8e	り	.	8g	り	.
4c	.	.	.	.	.	8e	え	.	8g	え	.
.	.	.	.	.	.	8eJ	な	.	8gJ	な	.
4c#X	.	.	2e	.	.	8fL	かっ	.	8aL	かっ	.
.	.	.	.	.	.	8e	た	.	8g	た	.
4c#	.	.	.	.	.	8c	こ	.	8e	こ	.
.	.	.	.	.	.	8AJ	と	.	8dJ	と	.
=43	=43	=43	=43	=43	=43	=43	=43	=43	=43	=43	=43
4d	.	.	2f	.	.	4c	ー	.	8cL	で	.
.	.	.	.	.	.	.	.	.	8c	あ	.
4d	.	.	.	.	.	4cc	wo-	.	8c	わ	.
.	.	.	.	.	.	.	.	.	8cJ	な	.
4c	.	.	4f	.	.	4b	.	.	8dL	かっ	.
.	.	.	.	.	.	.	.	.	8c	た	.
4c	.	.	4e	.	.	4cc	.	.	8A	こ	.
.	.	.	.	.	.	.	.	.	8cJ	と	.
=44	=44	=44	=44	=44	=44	=44	=44	=44	=44	=44	=44
4c	.	.	2e	Ah-	.	16gLL	あ	.	16GLL	あ	.
.	.	.	.	.	.	16gJ	ぶ	.	16GJ	ぶ	.
.	.	.	.	.	.	8gJ	なっ	.	8eJ	なっ	.
4c	.	.	.	.	.	8gL	か	.	8eL	か	.
.	.	.	.	.	.	8gJ	し	.	8eJ	し	.
4G	.	.	2d	.	.	8GL	い	.	8GL	い	.
.	.	.	.	.	.	8f	た	.	8d	た	.
4G	.	.	.	.	.	8f	の	.	8d	の	.
.	.	.	.	.	.	8fJ	し	.	8dJ	し	.
=45	=45	=45	=45	=45	=45	=45	=45	=45	=45	=45	=45
4G	.	.	2e	.	.	2e	い	.	2c	い	.
4G	.	.	.	.	.	.	.	.	.	.	.
4c^	try	.	4e^	-try	.	4e^	try	.	4g^	try	.
8c^L	try-	.	4e^	try	.	4e^	try	.	4g^	try	.
8AJ	.	.	.	.	.	.	.	.	.	.	.
=46	=46	=46	=46	=46	=46	=46	=46	=46	=46	=46	=46
8GL	-du	f	1e	wo-	f	1cc	wo-	f	8GL	ふ	f
[8G	lu-	.	.	.	.	.	.	.	[8c	り	.
8G]	.	.	.	.	.	.	.	.	8c]	ー	.
8GJ	-du	.	.	.	.	.	.	.	8dJ	か	.
8GL	du	.	.	.	.	.	.	.	8eL	え	.
[8G	lu-	.	.	.	.	.	.	.	8e	る	.
8G]	.	.	.	.	.	.	.	.	8c	よ	.
8GJ	du	.	.	.	.	.	.	.	8cJ	り	.
=47	=47	=47	=47	=47	=47	=47	=47	=47	=47	=47	=47
8FL	.	.	2f	.	.	2cc	.	.	8AL	ふ	.
[8F	.	.	.	.	.	.	.	.	8c	り	.
8F]	.	.	.	.	.	.	.	.	8c	む	.
8FJ	.	.	.	.	.	.	.	.	8AJ	い	.
8FL	.	.	8GL	-ふ	.	4cc	.	.	4G	て	.
[8F	.	.	8e	り	.	.	.	.	.	.	.
8F]	.	.	8e	む	.	4b	.	.	4r	.	.
8FJ	.	.	8fJ	い	.	.	.	.	.	.	.
=48	=48	=48	=48	=48	=48	=48	=48	=48	=48	=48	=48
8cL	.	.	2g	て	.	1cc	-wo-	.	8GL	ほ	.
[8c	.	.	.	.	.	.	.	.	[8c	り	.
8c]	.	.	.	.	.	.	.	.	8c]	ー	.
8cJ	.	.	.	.	.	.	.	.	8dJ	か	.
8cL	.	.	4cc	ー	.	.	.	.	8eL	え	.
[8c	.	.	.	.	.	.	.	.	8e	す	.
8c]	.	.	8gL	ー	.	.	.	.	8d	よ	.
8cJ	.	.	8eJ	ー	.	.	.	.	8eJ	り	.
=49	=49	=49	=49	=49	=49	=49	=49	=49	=49	=49	=49
8GL	.	.	8eL	ほ	.	2g	.	.	8gL	ほ	.
[8G	.	.	8c	り	.	.	.	.	8e	り	.
8G]	.	.	8e	だ	.	.	.	.	8g	だ	.
8GJ	.	.	8fJ	し	.	.	.	.	8aJ	し	.
8cL	.	.	4e	て	.	2cc	.	.	4g	て	.
[8c	.	.	.	.	.	.	.	.	.	.	.
8c]	.	.	4r	.	.	.	.	.	4r	.	.
8cJ	.	.	.	.	.	.	.	.	.	.	.
=50	=50	=50	=50	=50	=50	=50	=50	=50	=50	=50	=50
8AL	.	.	2f	wo-	.	2cc	wo-	.	8ccL	す	.
[8A	.	.	.	.	.	.	.	.	8b	ぎ	.
8A]	.	.	.	.	.	.	.	.	8a	た	.
8AJ	.	.	.	.	.	.	.	.	8gJ	は	.
8GL	.	.	2d	.	.	2dd	.	.	8ccL	な	.
[8G	.	.	.	.	.	.	.	.	8b	し	.
8G]	.	.	.	.	.	.	.	.	8a	は	.
8GJ	.	.	.	.	.	.	.	.	8gJ	ー	.
=51	=51	=51	=51	=51	=51	=51	=51	=51	=51	=51	=51
8GL	.	.	2d	.	.	2dd	.	.	8ccL	ほ	.
[8G	.	.	.	.	.	.	.	.	8b	ど	.
8G]	.	.	.	.	.	.	.	.	8a	ほ	.
8GJ	.	.	.	.	.	.	.	.	8gJ	ど	.
8AL	.	.	2e	.	.	4cc	.	.	4a	に	.
[8A	.	.	.	.	.	.	.	.	.	.	.
8A]	.	.	.	.	.	8gL	い	.	8eL	い	.
8AJ	.	.	.	.	.	8fJ	ま	.	8dJ	ま	.
=52	=52	=52	=52	=52	=52	=52	=52	=52	=52	=52	=52
8FL	.	.	2d	wo-	.	8eL	の	.	8cL	の	.
[8F	.	.	.	.	.	8e	は	.	8c	は	.
8F]	.	.	.	.	.	8e	な	.	8c	な	.
8FJ	.	.	.	.	.	8gJ	し	.	8eJ	し	.
8GL	.	.	2d	.	.	8fL	を	.	8dL	を	.
[8G	.	.	.	.	.	8e	し	.	8e	し	.
8G]	.	.	.	.	.	8e	よ	.	8d	よ	.
8GJ	.	.	.	.	.	8eJ	う	.	8cJ	う	.
=53	=53	=53	=53	=53	=53	=53	=53	=53	=53	=53	=53
8GL	du	.	2e	.	.	2e	ー	.	2c	ー	.
[8G	lu-	.	.	.	.	.	.	.	.	.	.
8G]	.	.	.	.	.	.	.	.	.	.	.
8GJ	-du	.	.	.	.	.	.	.	.	.	.
8G	dum	.	2r	.	.	2r	.	.	8r	.	.
4.r	.	.	.	.	.	.	.	.	8GL	お	.
.	.	.	.	.	.	.	.	.	8B	そ	.
.	.	.	.	.	.	.	.	.	8cJ	れ	.
=54	=54	=54	=54	=54	=54	=54	=54	=54	=54	=54	=54
4G	du	.	4d	du	.	2G	ず	.	2d	ず	.
4G	du	.	4d	du	.	.	.	.	.	.	.
4G	du	.	4d	du	.	8r	.	.	8r	.	.
.	.	.	.	.	.	8GL	ま	.	8GL	ま	.
4G	du	.	4d	du	.	8c	よ	.	8c	よ	.
.	.	.	.	.	.	8dJ	わ	.	8dJ	わ	.
=55	=55	=55	=55	=55	=55	=55	=55	=55	=55	=55	=55
4G	du	.	4e	du	.	2c	ず	.	2e	ず	.
4G	du	.	4e	du	.	.	.	.	.	.	.
4G	du	.	4e	du	.	8r	.	.	8r	.	.
.	.	.	.	.	.	8AL	お	.	8cL	お	.
4G	du	.	4e	du	.	8c	な	.	8e	な	.
.	.	.	.	.	.	8eJ	じ	.	8gJ	じ	.
=56	=56	=56	=56	=56	=56	=56	=56	=56	=56	=56	=56
4A	du	.	1f	Ah-	.	4f	きょう	.	4a	きょう	.
2c	Ah-	.	.	.	.	8eL	と	.	8gL	と	.
.	.	.	.	.	.	8eJ	い	.	8gJ	い	.
.	.	.	.	.	.	8cL	う	.	8fL	う	.
.	.	.	.	.	.	8cJ	ひ	.	8fJ	ひ	.
4d	.	.	.	.	.	4A	は	.	4d	は	.
=57	=57	=57	=57	=57	=57	=57	=57	=57	=57	=57	=57
2d	.	.	2g	.	.	8.dL	に	.	8.gL	に	.
.	.	.	.	.	.	8.d	ど	.	8.g	ど	.
.	.	.	.	.	.	8dJ	と	.	8gJ	と	.
8BL	-la	.	8bL	-la	.	2r	.	.	8gL	ないん	.
8B	la	.	8b	la	.	.	.	.	8f	だ	.
8B	la	.	8b	la	.	.	.	.	8e	か	.
8BJ	la	.	8bJ	la	.	.	.	.	8dJ	ら	.
=58	=58	=58	=58	=58	=58	=58	=58	=58	=58	=58	=58
8.GL	.	.	2e	Ah-	.	4cc	la	.	8.cL	あ	.
16GJk	.	.	.	.	.	.	.	.	16cJk	し	.
8GL	.	.	.	.	.	4cc	la	.	8cL	た	.
8GJ	.	.	.	.	.	.	.	.	8cJ	よ	.
8.AL	.	.	2f	.	.	4cc	la	.	8cL	り	.
.	.	.	.	.	.	.	.	.	8A	も	.
16AJk	.	.	.	.	.	.	.	.	.	.	.
8AL	.	.	.	.	.	4cc	la	.	8G	きょ	.
8AJ	.	.	.	.	.	.	.	.	8AJ	う	.
=59	=59	=59	=59	=59	=59	=59	=59	=59	=59	=59	=59
8.GL	.	.	4e	.	.	1cc	la	.	2c	に	.
16GJk	.	.	.	.	.	.	.	.	.	.	.
8GL	.	.	8ccL	はじ	.	.	.	.	.	.	.
8GJ	.	.	8ccJ	め	.	.	.	.	.	.	.
8.GL	.	.	4cc	よう	.	.	.	.	4r	.	.
16GJk	.	.	.	.	.	.	.	.	.	.	.
8GL	.	.	4r	.	.	.	.	.	8cL	し	.
8GJ	.	.	.	.	.	.	.	.	8cJ	ら	.
=60	=60	=60	=60	=60	=60	=60	=60	=60	=60	=60	=60
8.cL	.	.	4g	la	.	2cc	Ah-	.	8eL	な	.
.	.	.	.	.	.	.	.	.	8e	か	.
16cJk	.	.	.	.	.	.	.	.	.	.	.
8cL	.	.	4g	la	.	.	.	.	8e	っ	.
8cJ	.	.	.	.	.	.	.	.	8eJ	た	.
8.GL	.	.	4d	la	.	2b	.	.	8eL	じ	.
.	.	.	.	.	.	.	.	.	8cc	ぶ	.
16GJk	.	.	.	.	.	.	.	.	.	.	.
8GL	.	.	4d	la	.	.	.	.	8b	ん	.
8GJ	.	.	.	.	.	.	.	.	8ccJ	と	.
=61	=61	=61	=61	=61	=61	=61	=61	=61	=61	=61	=61
8.AL	.	.	1e	ls	.	8.gL	-い	.	2cc	ー	.
16AJk	.	.	.	.	.	16gJk	っ	.	.	.	.
8AL	.	.	.	.	.	8.gL	しょ	.	.	.	.
8AJ	.	.	.	.	.	.	.	.	.	.	.
.	.	.	.	.	.	16gJk	に	.	.	.	.
8.AL	.	.	.	.	.	8gL	は	.	2r	.	.
.	.	.	.	.	.	8f	し	.	.	.	.
16AJk	.	.	.	.	.	.	.	.	.	.	.
8AL	.	.	.	.	.	8eJ	ろう	.	.	.	.
8AJ	.	.	.	.	.	8r	.	.	.	.	.
=62	=62	=62	=62	=62	=62	=62	=62	=62	=62	=62	=62
4c	.	.	2e	Ah-	.	8eL	お	.	8gL	お	.
.	.	.	.	.	.	8e	も	.	8g	も	.
4c	.	.	.	.	.	8e	い	.	8g	い	.
.	.	.	.	.	.	8eJ	た	.	8gJ	た	.
4c#X	.	.	2e	.	.	8fL	っ	.	8aL	っ	.
.	.	.	.	.	.	8e	た	.	8g	た	.
4c#	.	.	.	.	.	8c	ひ	.	8e	ひ	.
.	.	.	.	.	.	8AJ	が	.	8dJ	が	.
=63	=63	=63	=63	=63	=63	=63	=63	=63	=63	=63	=63
4d	.	.	2f	.	.	4c	ー	.	8cL	お	.
.	.	.	.	.	.	.	.	.	8c	も	.
4d	.	.	.	.	.	4cc	Ah-	.	8c	い	.
.	.	.	.	.	.	.	.	.	8cJ	つ	.
2c	.	.	4f	.	.	4b	.	.	8dL	い	.
.	.	.	.	.	.	.	.	.	8c	た	.
.	.	.	4e	.	.	4cc	.	.	8A	ひ	.
.	.	.	.	.	.	.	.	.	8cJ	が	.
=64	=64	=64	=64	=64	=64	=64	=64	=64	=64	=64	=64
4c	.	.	2e	-Ah-	.	8gL	そ	.	8GL	そ	.
.	.	.	.	.	.	[8g	こ	.	[8e	こ	.
4c	.	.	.	.	.	8g]	ー	.	8e]	ー	.
.	.	.	.	.	.	8gJ	が	.	8eJ	が	.
4G	.	.	2d	.	.	8GL	ス	.	8GL	ス	.
.	.	.	.	.	.	[8f	タ	.	[8d	タ	.
4G	.	.	.	.	.	8f]	ー	.	8d]	ー	.
.	.	.	.	.	.	8fJ	ト	.	8dJ	ト	.
=65	=65	=65	=65	=65	=65	=65	=65	=65	=65	=65	=65
2G	.	.	2e	.	.	2e	だ	.	4c	だ	.
.	.	.	.	.	.	.	.	.	4r	.	.
8cL	du	.	2r	.	.	2r	.	.	8gL	あ	.
16cL	du	.	.	.	.	.	.	.	8gJ	お	.
16cJJ	lu	.	.	.	.	.	.	.	.	.	.
16GLL	du	.	.	.	.	.	.	.	4g	い	.
16FJ	lu	.	.	.	.	.	.	.	.	.	.
8EJ	dum	.	.	.	.	.	.	.	.	.	.
=66	=66	=66	=66	=66	=66	=66	=66	=66	=66	=66	=66
2A	wo-	mp	2c	-wo-	mp	2f	wo-	mp	8gL	よ	mp
.	.	.	.	.	.	.	.	.	8f	り	.
.	.	.	.	.	.	.	.	.	8e	あ	.
.	.	.	.	.	.	.	.	.	8dJ	お	.
2G	.	.	2e	.	.	4g	.	.	4c	い	.
.	.	.	.	.	.	4g	-そ	.	4r	.	.
=67	=67	=67	=67	=67	=67	=67	=67	=67	=67	=67	=67
2G	.	.	2B	.	.	8dL	ら	.	2.r	.	.
.	.	.	.	.	.	8dJ	も	.	.	.	.
.	.	.	.	.	.	4d	そう	.	.	.	.
2A	.	.	2e	.	.	4c	さ	.	.	.	.
.	.	.	.	.	.	4r	.	.	8gL	お	.
.	.	.	.	.	.	.	.	.	8eJ	な	.
=68	=68	=68	=68	=68	=68	=68	=68	=68	=68	=68	=68
2A	-wo-	.	2c	-wo-	.	2.r	.	.	8gL	じ	.
.	.	.	.	.	.	.	.	.	8e	に	.
.	.	.	.	.	.	.	.	.	8g	み	.
.	.	.	.	.	.	.	.	.	8aJ	え	.
2G	.	.	2e	.	.	.	.	.	4g	て	.
.	.	.	.	.	.	8gL	い	.	4r	.	.
.	.	.	.	.	.	8gJ	つ	.	.	.	.
=69	=69	=69	=69	=69	=69	=69	=69	=69	=69	=69	=69
2G	.	.	2B	.	.	8dL	も	.	2.r	.	.
.	.	.	.	.	.	8dJ	ち	.	.	.	.
.	.	.	.	.	.	4d	が	.	.	.	.
2A	.	.	2e	.	.	4c	う	.	.	.	.
.	.	.	.	.	.	4r	.	.	4g	どん	.
=70	=70	=70	=70	=70	=70	=70	=70	=70	=70	=70	=70
2A	-wo-	.	2c	-wo-	.	2f	wo-	.	4c	な	.
.	.	.	.	.	.	.	.	.	8cL	ひ	.
.	.	.	.	.	.	.	.	.	8cJ	と	.
2G	.	.	2c	.	.	2e	.	.	4c	だっ	.
.	.	.	.	.	.	.	.	.	8AL	て	.
.	.	.	.	.	.	.	.	.	8GJ	ー	.
=71	=71	=71	=71	=71	=71	=71	=71	=71	=71	=71	=71
2G	.	.	2B	.	.	2d	.	.	8dL	お	.
.	.	.	.	.	.	.	.	.	8d	な	.
.	.	.	.	.	.	.	.	.	8d	じ	.
.	.	.	.	.	.	.	.	.	8dJ	じゃ	.
2A	.	.	2c	.	.	2e	.	.	4e	ない	.
.	.	.	.	.	.	.	.	.	8dL	さ	.
.	.	.	.	.	.	.	.	.	8cJ	く	.
=72	=72	=72	=72	=72	=72	=72	=72	=72	=72	=72	=72
1A	-Uh-	mf	1f	Uh-	mf	2.c	-Uh	mf	8cL	う	mf
.	.	.	.	.	.	.	.	.	8c	き	.
.	.	.	.	.	.	.	.	.	8d	な	.
.	.	.	.	.	.	.	.	.	8dJ	ん	.
.	.	.	.	.	.	.	.	.	2e	て	.
.	.	.	.	.	.	8r	.	.	.	.	.
.	.	.	.	.	.	8c	く	.	.	.	.
=73	=73	=73	=73	=73	=73	=73	=73	=73	=73	=73	=73
1A	.	.	1f	.	.	8cL	う	.	2.r	.	.
.	.	.	.	.	.	8c	き	.	.	.	.
.	.	.	.	.	.	8d	な	.	.	.	.
.	.	.	.	.	.	8dJ	ん	.	.	.	.
.	.	.	.	.	.	4e	て	.	.	.	.
.	.	.	.	.	.	4r	.	.	8eL	よ	.
.	.	.	.	.	.	.	.	.	8fJ	ま	.
=74	=74	=74	=74	=74	=74	=74	=74	=74	=74	=74	=74
1B	-wo	.	1d	wo	.	1g	wo	.	2.g	ない	.
.	.	.	.	.	.	.	.	.	4r	.	.
=75	=75	=75	=75	=75	=75	=75	=75	=75	=75	=75	=75
4B	やっ	ff	4g	やっ	ff	4b	やっ	ff	2r	.	.
8cL	て	.	8aL	て	.	8ccL	て	.	.	.	.
8cJ	み	.	8aJ	み	.	8ccJ	み	.	.	.	.
2B	よう	.	2g	よう	.	2b	よう	.	8gL	た	.
.	.	.	.	.	.	.	.	.	8g	だ	.
.	.	.	.	.	.	.	.	.	8g	し	.
.	.	.	.	.	.	.	.	.	8eJ	い	.
=76	=76	=76	=76	=76	=76	=76	=76	=76	=76	=76	=76
4A	.	f	8r	.	f	2f	Ah	f	8gL	よ	f
.	.	.	8c	tu	.	.	.	.	8e	り	.
4A	.	.	8r	.	.	.	.	.	8g	た	.
.	.	.	8c	tu	.	.	.	.	8aJ	の	.
4G	.	.	8r	.	.	16r	.	.	4g	しい	.
.	.	.	.	.	.	8gL	やっ	.	.	.	.
.	.	.	8c	tu	.	.	.	.	.	.	.
.	.	.	.	.	.	16gJk	て	.	.	.	.
4G	.	.	8r	.	.	8aL	みよう	.	8r	.	.
.	.	.	8c	tu	.	8gJ	か	.	8g	た	.
=77	=77	=77	=77	=77	=77	=77	=77	=77	=77	=77	=77
4c	.	.	8r	.	.	2f	ー	.	8ccL	お	.
.	.	.	8d	tu	.	.	.	.	8b	れ	.
4c	.	.	8r	.	.	.	.	.	8a	る	.
.	.	.	8d	tu	.	.	.	.	8gJ	な	.
4A	.	.	8r	.	.	16r	.	.	4a	ら	.
.	.	.	.	.	.	8gL	前	.	.	.	.
.	.	.	8e	tu	.	.	.	.	.	.	.
.	.	.	.	.	.	16gJk	に	.	.	.	.
4A	.	.	8r	.	.	16gLL	た	.	4r	.	.
.	.	.	.	.	.	16a	お	.	.	.	.
.	.	.	8e	tu	.	16g	れ	.	.	.	.
.	.	.	.	.	.	16gJJ	よ	.	.	.	.
=78	=78	=78	=78	=78	=78	=78	=78	=78	=78	=78	=78
4A	.	.	1c	Ah-	.	1f	Ah-	.	8gL	やっ	.
.	.	.	.	.	.	.	.	.	8g	て	.
4A	.	.	.	.	.	.	.	.	8g	ー	.
.	.	.	.	.	.	.	.	.	8eJ	こう	.
4A	.	.	.	.	.	.	.	.	8gL	かい	.
.	.	.	.	.	.	.	.	.	8g	な	.
4A	.	.	.	.	.	.	.	.	8g	ー	.
.	.	.	.	.	.	.	.	.	8eJ	ど	.
=79	=79	=79	=79	=79	=79	=79	=79	=79	=79	=79	=79
4G	.	.	4c	.	.	2e	.	.	8gL	す	.
.	.	.	.	.	.	.	.	.	8e	る	.
4G	.	.	4e	.	.	.	.	.	8g	こ	.
.	.	.	.	.	.	.	.	.	8aJ	と	.
4G	.	.	2e	.	.	4g	.	.	8.aL	な	.
.	.	.	.	.	.	.	.	.	16gJk	い	.
4G	.	.	.	.	.	4cc	.	.	8gL	さ	.
.	.	.	.	.	.	.	.	.	8dJ	り	.
=80	=80	=80	=80	=80	=80	=80	=80	=80	=80	=80	=80
4A	.	.	2c	-Ah-	.	2f	-Ah-	.	4e	ゆう	.
4A	.	.	.	.	.	.	.	.	4g	なん	.
4B	.	.	2d	.	.	2g	.	.	4c	て	.
4B	.	.	.	.	.	.	.	.	8r	.	.
.	.	.	.	.	.	.	.	.	8c	い	.
=81	=81	=81	=81	=81	=81	=81	=81	=81	=81	=81	=81
1A	Ah	.	4e	.	.	2a	.	.	8dL	ら	.
.	.	.	.	.	.	.	.	.	8c	ない	.
.	.	.	4e	.	.	.	.	.	8c	い	.
.	.	.	.	.	.	.	.	.	8fJ	ら	.
.	.	.	4c	.	.	8eL	.	.	8.eL	ない	.
.	.	.	.	.	.	8aJ	.	.	.	.	.
.	.	.	.	.	.	.	.	.	16dJk	ら	.
.	.	.	4A	.	.	4cc	.	.	4c	ない	.
=82	=82	=82	=82	=82	=82	=82	=82	=82	=82	=82	=82
8c	la	.	8e	-la	.	4cc	-やっ	.	4g	やっ	.
8r	.	.	8r	.	.	.	.	.	.	.	.
4r	.	.	4r	.	.	8.ccL	て	.	8.gL	て	.
.	.	.	.	.	.	16ccJk	み	.	16gJk	み	.
8r	.	.	8r	.	.	8ccL	よ	.	8fL	よ	.
8cL	du	.	8eL	du	.	8a	う	.	8f	う	.
8c	du	.	8e	du	.	8g	ー	.	8e	ー	.
8cJ	du	.	8eJ	du	.	8fJ	ー	.	8eJ	ー	.
=83	=83	=83	=83	=83	=83	=83	=83	=83	=83	=83	=83
1c	wo	.	1g	wo-	.	1e	ー	.	1c	ー	.
=84	=84	=84	=84	=84	=84	=84	=84	=84	=84	=84	=84
1c	ー	.	1g	ー	.	1f	ー	.	1c	ー	.
=85	=85	=85	=85	=85	=85	=85	=85	=85	=85	=85	=85
1G	wo	.	8cL	やっ	.	2e	wo	.	1c	wo	.
.	.	.	16cL	て	.	.	.	.	.	.	.
.	.	.	16cJJ	み	.	.	.	.	.	.	.
.	.	.	[2.c	よう	.	.	.	.	.	.	.
.	.	.	.	.	.	8eL	やっ	.	.	.	.
.	.	.	.	.	.	16eL	て	.	.	.	.
.	.	.	.	.	.	16eJJ	み	.	.	.	.
.	.	.	.	.	.	[4e	よう	.	.	.	.
=86	=86	=86	=86	=86	=86	=86	=86	=86	=86	=86	=86
2G	.	.	2c]	.	.	2e]	.	.	8gL	やっ	.
.	.	.	.	.	.	.	.	.	16gL	て	.
.	.	.	.	.	.	.	.	.	16gJJ	み	.
.	.	.	.	.	.	.	.	.	4g	よう	.
8cL	やっ	.	8gL	やっ	.	8ccL	やっ	.	8eeL	やっ	.
16cL	て	.	16gL	て	.	16ccL	て	.	16eeL	て	.
16cJJ	み	.	16gJJ	み	.	16ccJJ	み	.	16eeJJ	み	.
4c	よう！	.	4g	よう！	.	4cc	よう！	.	4ee	よう！	.
=87	=87	=87	=87	=87	=87	=87	=87	=87	=87	=87	=87
8r	.	.	8r	.	.	8r	.	.	8r	.	.
8G	wo	.	8g	wo	.	8g	wo	.	8g	wo	.
2.c	.	.	2.e	.	.	2.g	.	.	2.cc	.	.
==	==	==	==	==	==	==	==	==	==	==	==
*-	*-	*-	*-	*-	*-	*-	*-	*-	*-	*-	*-
